;FLAVOR:Marlin
;TIME:1595
;Filament used: 0.694242m
;Layer height: 0.1
;MINX:48.563
;MINY:50.278
;MINZ:0.3
;MAXX:73.436
;MAXY:72.832
;MAXZ:20
;Generated with Cura_SteamEngine 4.4.1
M140 S60
M105
M190 S60
M104 S210
M105
M109 S210
M82 ;absolute extrusion mode
G28 ;Home
G0 Z1
G0 X0
G92 E0
G0 Z0.5
G1 F1000 Y100 E20
G92 E0
G92 E0
G92 E0
G1 F1500 E-2
;LAYER_COUNT:198
;LAYER:0
M107
G0 F1800 X54.694 Y54.646 Z0.3
;TYPE:SKIRT
G1 F1500 E0
G1 F600 X54.781 Y54.561 E0.00607
G1 X55.161 Y54.213 E0.03178
G1 X55.278 Y54.115 E0.03939
G1 X55.676 Y53.808 E0.06447
G1 X55.833 Y53.699 E0.074
G1 X56.584 Y53.238 E0.11797
G1 X56.702 Y53.172 E0.12471
G1 X57.209 Y52.911 E0.15316
G1 X57.374 Y52.836 E0.1622
G1 X57.931 Y52.617 E0.19206
G1 X58.073 Y52.568 E0.19956
G1 X58.806 Y52.348 E0.23774
G1 X59.023 Y52.297 E0.24886
G1 X59.845 Y52.158 E0.29045
G1 X60.022 Y52.137 E0.29934
G1 X60.87 Y52.079 E0.34175
G1 X61.083 Y52.077 E0.35238
G1 X61.681 Y52.107 E0.38225
G1 X61.851 Y52.124 E0.39077
G1 X62.864 Y52.272 E0.44185
G1 X63.115 Y52.327 E0.45467
G1 X63.919 Y52.565 E0.4965
G1 X64.06 Y52.613 E0.50393
G1 X64.58 Y52.815 E0.53176
G1 X64.751 Y52.892 E0.54112
G1 X65.296 Y53.172 E0.57169
G1 X65.403 Y53.232 E0.57781
G1 X66.081 Y53.641 E0.61731
G1 X66.232 Y53.742 E0.62637
G1 X66.673 Y54.073 E0.65388
G1 X66.803 Y54.181 E0.66231
G1 X67.2 Y54.542 E0.68909
G1 X67.28 Y54.62 E0.69466
G1 X67.819 Y55.175 E0.73326
G1 X67.967 Y55.348 E0.74462
G1 X68.475 Y56.024 E0.7868
G1 X68.587 Y56.192 E0.79688
G1 X69.028 Y56.941 E0.84024
G1 X69.133 Y57.148 E0.85182
G1 X69.485 Y57.973 E0.89657
G1 X69.56 Y58.185 E0.90779
G1 X69.849 Y59.198 E0.96034
G1 X69.902 Y59.451 E0.97324
G1 X70.013 Y60.274 E1.01467
G1 X70.029 Y60.479 E1.02493
G1 X70.048 Y61.437 E1.07273
G1 X70.037 Y61.67 E1.08437
G1 X69.935 Y62.595 E1.1308
G1 X69.905 Y62.781 E1.1402
G1 X69.537 Y64.472 E1.22654
G1 X69.529 Y64.508 E1.22838
G1 X69.211 Y65.837 E1.29655
G1 X69.2 Y65.877 E1.29862
G1 X69.025 Y66.54 E1.33283
G1 X68.994 Y66.646 E1.33834
G1 X68.753 Y67.375 E1.37665
G1 X68.671 Y67.58 E1.38766
G1 X68.236 Y68.499 E1.43839
G1 X68.104 Y68.732 E1.45175
G1 X67.572 Y69.525 E1.49939
G1 X67.413 Y69.729 E1.5123
G1 X66.777 Y70.433 E1.55963
G1 X66.586 Y70.614 E1.57276
G1 X65.849 Y71.222 E1.62042
G1 X65.639 Y71.372 E1.6333
G1 X64.826 Y71.866 E1.68076
G1 X64.587 Y71.988 E1.69415
G1 X63.707 Y72.357 E1.74175
G1 X63.462 Y72.44 E1.75466
G1 X62.543 Y72.678 E1.80202
G1 X62.282 Y72.725 E1.81525
G1 X61.332 Y72.826 E1.86291
G1 X61.029 Y72.832 E1.87803
G1 X59.949 Y72.764 E1.93202
G1 X59.652 Y72.721 E1.94699
G1 X58.725 Y72.504 E1.99449
G1 X58.477 Y72.426 E2.00746
G1 X57.586 Y72.076 E2.05522
G1 X57.35 Y71.963 E2.06828
G1 X56.527 Y71.492 E2.11558
G1 X56.308 Y71.345 E2.12874
G1 X55.558 Y70.755 E2.17635
G1 X55.364 Y70.577 E2.18949
G1 X54.707 Y69.883 E2.23716
G1 X54.542 Y69.682 E2.25014
G1 X53.993 Y68.902 E2.29773
G1 X53.858 Y68.677 E2.31082
G1 X53.429 Y67.827 E2.35832
G1 X53.332 Y67.596 E2.37082
G1 X53.03 Y66.709 E2.41756
G1 X52.988 Y66.567 E2.42495
G1 X52.476 Y64.527 E2.52989
G1 X52.468 Y64.492 E2.53168
G1 X52.172 Y63.202 E2.59771
G1 X52.145 Y63.06 E2.60492
G1 X51.971 Y61.875 E2.66467
G1 X51.952 Y61.614 E2.67773
G1 X51.952 Y60.681 E2.72428
G1 X51.966 Y60.454 E2.73562
G1 X52.084 Y59.527 E2.78224
G1 X52.127 Y59.305 E2.79353
G1 X52.326 Y58.533 E2.8333
G1 X52.391 Y58.331 E2.84389
G1 X52.764 Y57.369 E2.89536
G1 X52.868 Y57.146 E2.90764
G1 X53.265 Y56.431 E2.94844
G1 X53.377 Y56.256 E2.95881
G1 X53.964 Y55.438 E3.00904
G1 X54.123 Y55.245 E3.02151
G1 X54.694 Y54.646 E3.0628
G0 F1800 X54.984 Y54.922
G1 F600 X55.051 Y54.856 E3.06749
G1 X55.431 Y54.508 E3.0932
G1 X55.522 Y54.431 E3.09914
G1 X55.92 Y54.124 E3.12422
G1 X56.043 Y54.04 E3.13165
G1 X56.794 Y53.579 E3.17562
G1 X56.885 Y53.527 E3.18084
G1 X57.392 Y53.266 E3.20929
G1 X57.521 Y53.208 E3.21635
G1 X58.078 Y52.989 E3.24621
G1 X58.188 Y52.951 E3.25202
G1 X58.921 Y52.731 E3.2902
G1 X59.09 Y52.692 E3.29885
G1 X59.912 Y52.553 E3.34044
G1 X60.049 Y52.536 E3.34733
G1 X60.897 Y52.478 E3.38974
G1 X61.063 Y52.477 E3.39802
G1 X61.661 Y52.507 E3.42789
G1 X61.793 Y52.52 E3.43451
G1 X62.806 Y52.668 E3.48558
G1 X63.001 Y52.711 E3.49554
G1 X63.805 Y52.949 E3.53738
G1 X63.915 Y52.986 E3.54317
G1 X64.435 Y53.188 E3.571
G1 X64.568 Y53.248 E3.57828
G1 X65.113 Y53.528 E3.60885
G1 X65.196 Y53.574 E3.61358
G1 X65.874 Y53.983 E3.65308
G1 X65.991 Y54.062 E3.66013
G1 X66.432 Y54.393 E3.68764
G1 X66.534 Y54.477 E3.69423
G1 X66.931 Y54.838 E3.721
G1 X66.993 Y54.899 E3.72534
G1 X67.532 Y55.454 E3.76394
G1 X67.647 Y55.588 E3.77275
G1 X68.155 Y56.264 E3.81493
G1 X68.242 Y56.395 E3.82278
G1 X68.683 Y57.144 E3.86614
G1 X68.765 Y57.305 E3.87516
G1 X69.117 Y58.13 E3.91991
G1 X69.175 Y58.295 E3.92863
G1 X69.464 Y59.308 E3.98119
G1 X69.505 Y59.505 E3.99123
G1 X69.616 Y60.328 E4.03266
G1 X69.629 Y60.487 E4.04062
G1 X69.648 Y61.445 E4.08842
G1 X69.64 Y61.626 E4.09746
G1 X69.538 Y62.551 E4.14389
G1 X69.514 Y62.696 E4.15122
G1 X69.146 Y64.387 E4.23756
G1 X69.14 Y64.415 E4.23899
G1 X68.822 Y65.744 E4.30716
G1 X68.814 Y65.775 E4.30876
G1 X68.639 Y66.438 E4.34297
G1 X68.614 Y66.52 E4.34725
G1 X68.373 Y67.249 E4.38555
G1 X68.309 Y67.409 E4.39415
G1 X67.874 Y68.328 E4.44488
G1 X67.772 Y68.509 E4.45524
G1 X67.24 Y69.302 E4.50288
G1 X67.116 Y69.461 E4.51294
G1 X66.48 Y70.165 E4.56028
G1 X66.332 Y70.306 E4.57047
G1 X65.595 Y70.914 E4.61814
G1 X65.431 Y71.03 E4.62816
G1 X64.618 Y71.524 E4.67562
G1 X64.432 Y71.619 E4.68604
G1 X63.552 Y71.988 E4.73365
G1 X63.362 Y72.052 E4.74365
G1 X62.443 Y72.29 E4.79102
G1 X62.24 Y72.327 E4.80131
G1 X61.29 Y72.428 E4.84897
G1 X61.054 Y72.433 E4.86075
G1 X59.974 Y72.365 E4.91474
G1 X59.743 Y72.331 E4.92639
G1 X58.816 Y72.114 E4.97388
G1 X58.623 Y72.054 E4.98397
G1 X57.732 Y71.704 E5.03173
G1 X57.549 Y71.616 E5.04186
G1 X56.726 Y71.145 E5.08917
G1 X56.555 Y71.03 E5.09945
G1 X55.805 Y70.44 E5.14705
G1 X55.654 Y70.302 E5.15726
G1 X54.997 Y69.608 E5.20494
G1 X54.869 Y69.452 E5.21501
G1 X54.32 Y68.672 E5.26259
G1 X54.215 Y68.497 E5.27277
G1 X53.786 Y67.647 E5.32028
G1 X53.711 Y67.467 E5.33
G1 X53.409 Y66.58 E5.37675
G1 X53.376 Y66.47 E5.38248
G1 X52.864 Y64.43 E5.48741
G1 X52.857 Y64.402 E5.48885
G1 X52.561 Y63.112 E5.55488
G1 X52.541 Y63.002 E5.56046
G1 X52.367 Y61.817 E5.62022
G1 X52.352 Y61.614 E5.63037
G1 X52.352 Y60.681 E5.67692
G1 X52.363 Y60.504 E5.68577
G1 X52.481 Y59.577 E5.73239
G1 X52.514 Y59.405 E5.74113
G1 X52.713 Y58.633 E5.7809
G1 X52.764 Y58.476 E5.78914
G1 X53.137 Y57.514 E5.84061
G1 X53.218 Y57.34 E5.85019
G1 X53.615 Y56.625 E5.89099
G1 X53.702 Y56.489 E5.89904
G1 X54.289 Y55.671 E5.94927
G1 X54.413 Y55.521 E5.95898
G1 X54.984 Y54.922 E6.00027
G0 F1800 X55.273 Y55.198
G1 F600 X55.322 Y55.151 E6.00366
G1 X55.702 Y54.803 E6.02936
G1 X55.766 Y54.748 E6.03357
G1 X56.164 Y54.441 E6.05865
G1 X56.252 Y54.381 E6.06397
G1 X57.003 Y53.92 E6.10793
G1 X57.068 Y53.883 E6.11166
G1 X57.575 Y53.622 E6.14011
G1 X57.667 Y53.58 E6.14515
G1 X58.224 Y53.361 E6.17501
G1 X58.303 Y53.334 E6.17918
G1 X59.036 Y53.114 E6.21736
G1 X59.156 Y53.086 E6.22351
G1 X59.978 Y52.947 E6.2651
G1 X60.077 Y52.935 E6.27008
G1 X60.925 Y52.877 E6.31248
G1 X61.043 Y52.876 E6.31837
G1 X61.641 Y52.906 E6.34824
G1 X61.736 Y52.916 E6.35301
G1 X62.749 Y53.064 E6.40408
G1 X62.888 Y53.094 E6.41118
G1 X63.692 Y53.332 E6.45301
G1 X63.77 Y53.359 E6.45713
G1 X64.29 Y53.561 E6.48496
G1 X64.385 Y53.604 E6.49016
G1 X64.93 Y53.884 E6.52073
G1 X64.99 Y53.917 E6.52415
G1 X65.668 Y54.326 E6.56365
G1 X65.751 Y54.382 E6.56864
G1 X66.192 Y54.713 E6.59615
G1 X66.265 Y54.773 E6.60087
G1 X66.662 Y55.134 E6.62764
G1 X66.706 Y55.177 E6.63071
G1 X67.245 Y55.732 E6.66931
G1 X67.327 Y55.828 E6.6756
G1 X67.835 Y56.504 E6.71779
G1 X67.898 Y56.598 E6.72344
G1 X68.339 Y57.347 E6.7668
G1 X68.397 Y57.462 E6.77323
G1 X68.749 Y58.287 E6.81798
G1 X68.791 Y58.405 E6.82422
G1 X69.08 Y59.418 E6.87678
G1 X69.109 Y59.558 E6.88391
G1 X69.22 Y60.381 E6.92534
G1 X69.229 Y60.495 E6.93105
G1 X69.248 Y61.453 E6.97885
G1 X69.242 Y61.583 E6.98535
G1 X69.14 Y62.508 E7.03177
G1 X69.123 Y62.611 E7.03698
G1 X68.755 Y64.302 E7.12332
G1 X68.751 Y64.322 E7.12434
G1 X68.433 Y65.651 E7.19252
G1 X68.427 Y65.673 E7.19365
G1 X68.252 Y66.336 E7.22786
G1 X68.234 Y66.395 E7.23094
G1 X67.993 Y67.124 E7.26925
G1 X67.948 Y67.238 E7.27536
G1 X67.513 Y68.157 E7.32609
G1 X67.439 Y68.286 E7.33351
G1 X66.907 Y69.079 E7.38115
G1 X66.819 Y69.192 E7.38829
G1 X66.183 Y69.896 E7.43563
G1 X66.077 Y69.997 E7.44293
G1 X65.34 Y70.605 E7.4906
G1 X65.223 Y70.689 E7.49778
G1 X64.41 Y71.183 E7.54524
G1 X64.278 Y71.25 E7.55263
G1 X63.398 Y71.619 E7.60024
G1 X63.262 Y71.665 E7.6074
G1 X62.343 Y71.903 E7.65476
G1 X62.198 Y71.929 E7.66211
G1 X61.248 Y72.03 E7.70977
G1 X61.079 Y72.034 E7.71821
G1 X59.999 Y71.966 E7.77219
G1 X59.834 Y71.942 E7.78051
G1 X58.907 Y71.725 E7.82801
G1 X58.769 Y71.682 E7.83522
G1 X57.878 Y71.332 E7.88298
G1 X57.747 Y71.269 E7.89023
G1 X56.924 Y70.798 E7.93754
G1 X56.803 Y70.716 E7.94483
G1 X56.053 Y70.126 E7.99244
G1 X55.945 Y70.027 E7.99975
G1 X55.288 Y69.333 E8.04743
G1 X55.196 Y69.222 E8.05462
G1 X54.647 Y68.442 E8.10221
G1 X54.572 Y68.317 E8.10948
G1 X54.143 Y67.467 E8.15698
G1 X54.089 Y67.338 E8.16396
G1 X53.787 Y66.451 E8.21071
G1 X53.764 Y66.372 E8.21481
G1 X53.252 Y64.332 E8.31975
G1 X53.247 Y64.313 E8.32073
G1 X52.951 Y63.023 E8.38676
G1 X52.937 Y62.944 E8.39076
G1 X52.763 Y61.759 E8.45051
G1 X52.752 Y61.614 E8.45777
G1 X52.752 Y60.681 E8.50432
G1 X52.76 Y60.555 E8.51061
G1 X52.878 Y59.628 E8.55724
G1 X52.902 Y59.504 E8.56354
G1 X53.101 Y58.732 E8.60331
G1 X53.137 Y58.62 E8.60918
G1 X53.51 Y57.658 E8.66066
G1 X53.568 Y57.535 E8.66744
G1 X53.965 Y56.82 E8.70824
G1 X54.027 Y56.722 E8.71403
G1 X54.614 Y55.904 E8.76426
G1 X54.702 Y55.797 E8.77117
G1 X55.273 Y55.198 E8.81246
G0 F1800 X55.563 Y55.474
G1 F600 X55.592 Y55.446 E8.81447
G1 X55.972 Y55.098 E8.84017
G1 X56.011 Y55.065 E8.84272
G1 X56.409 Y54.758 E8.8678
G1 X56.461 Y54.722 E8.87096
G1 X57.212 Y54.261 E8.91492
G1 X57.251 Y54.239 E8.91715
G1 X57.758 Y53.978 E8.9456
G1 X57.813 Y53.953 E8.94862
G1 X58.37 Y53.734 E8.97848
G1 X58.418 Y53.717 E8.98102
G1 X59.151 Y53.497 E9.0192
G1 X59.223 Y53.48 E9.02289
G1 X60.045 Y53.341 E9.06448
G1 X60.104 Y53.334 E9.06745
G1 X60.952 Y53.276 E9.10985
G1 X61.023 Y53.276 E9.11339
G1 X61.621 Y53.306 E9.14326
G1 X61.678 Y53.311 E9.14612
G1 X62.691 Y53.459 E9.19719
G1 X62.774 Y53.478 E9.20144
G1 X63.578 Y53.716 E9.24328
G1 X63.625 Y53.732 E9.24575
G1 X64.145 Y53.934 E9.27358
G1 X64.202 Y53.959 E9.27669
G1 X64.747 Y54.239 E9.30726
G1 X64.783 Y54.259 E9.30931
G1 X65.461 Y54.668 E9.34882
G1 X65.511 Y54.702 E9.35183
G1 X65.952 Y55.033 E9.37934
G1 X65.996 Y55.069 E9.38218
G1 X66.393 Y55.43 E9.40895
G1 X66.419 Y55.456 E9.41078
G1 X66.958 Y56.011 E9.44938
G1 X67.008 Y56.069 E9.4532
G1 X67.516 Y56.745 E9.49539
G1 X67.553 Y56.801 E9.49874
G1 X67.994 Y57.55 E9.5421
G1 X68.029 Y57.619 E9.54596
G1 X68.381 Y58.444 E9.59071
G1 X68.406 Y58.514 E9.59442
G1 X68.695 Y59.527 E9.64697
G1 X68.713 Y59.612 E9.65131
G1 X68.824 Y60.435 E9.69274
G1 X68.829 Y60.503 E9.69614
G1 X68.848 Y61.461 E9.74395
G1 X68.844 Y61.539 E9.74784
G1 X68.742 Y62.464 E9.79427
G1 X68.732 Y62.526 E9.7974
G1 X68.364 Y64.217 E9.88374
G1 X68.362 Y64.229 E9.88435
G1 X68.044 Y65.558 E9.95253
G1 X68.04 Y65.571 E9.9532
G1 X67.865 Y66.234 E9.98741
G1 X67.855 Y66.269 E9.98923
G1 X67.614 Y66.998 E10.02754
G1 X67.586 Y67.067 E10.03125
G1 X67.151 Y67.986 E10.08198
G1 X67.107 Y68.063 E10.0864
G1 X66.575 Y68.856 E10.13404
G1 X66.522 Y68.924 E10.13834
G1 X65.886 Y69.628 E10.18568
G1 X65.823 Y69.689 E10.19005
G1 X65.086 Y70.297 E10.23772
G1 X65.016 Y70.347 E10.24201
G1 X64.203 Y70.841 E10.28947
G1 X64.123 Y70.881 E10.29393
G1 X63.243 Y71.25 E10.34154
G1 X63.161 Y71.278 E10.34586
G1 X62.242 Y71.516 E10.39323
G1 X62.155 Y71.532 E10.39764
G1 X61.205 Y71.633 E10.4453
G1 X61.104 Y71.635 E10.45034
G1 X60.024 Y71.567 E10.50433
G1 X59.925 Y71.552 E10.50932
G1 X58.998 Y71.335 E10.55682
G1 X58.916 Y71.309 E10.56112
G1 X58.025 Y70.959 E10.60887
G1 X57.946 Y70.922 E10.61323
G1 X57.123 Y70.451 E10.66053
G1 X57.05 Y70.402 E10.66492
G1 X56.3 Y69.812 E10.71253
G1 X56.235 Y69.752 E10.71694
G1 X55.578 Y69.058 E10.76462
G1 X55.523 Y68.991 E10.76894
G1 X54.974 Y68.211 E10.81653
G1 X54.929 Y68.136 E10.8209
G1 X54.5 Y67.286 E10.8684
G1 X54.468 Y67.209 E10.87256
G1 X54.166 Y66.322 E10.9193
G1 X54.152 Y66.275 E10.92175
G1 X53.64 Y64.235 E11.02668
G1 X53.637 Y64.223 E11.0273
G1 X53.341 Y62.933 E11.09333
G1 X53.332 Y62.886 E11.09572
G1 X53.158 Y61.701 E11.15547
G1 X53.152 Y61.614 E11.15982
G1 X53.152 Y60.681 E11.20637
G1 X53.157 Y60.605 E11.21017
G1 X53.275 Y59.678 E11.25679
G1 X53.289 Y59.604 E11.26055
G1 X53.488 Y58.832 E11.30032
G1 X53.51 Y58.765 E11.30384
G1 X53.883 Y57.803 E11.35532
G1 X53.917 Y57.729 E11.35938
G1 X54.314 Y57.014 E11.40018
G1 X54.352 Y56.955 E11.40368
G1 X54.939 Y56.137 E11.45391
G1 X54.992 Y56.073 E11.45806
G1 X55.563 Y55.474 E11.49935
G0 F1800 X55.852 Y55.75
G1 F600 X55.862 Y55.741 E11.50002
G1 X56.242 Y55.393 E11.52572
G1 X56.255 Y55.382 E11.52657
G1 X56.653 Y55.075 E11.55165
G1 X56.67 Y55.063 E11.55269
G1 X57.421 Y54.602 E11.59665
G1 X57.434 Y54.594 E11.59741
G1 X57.941 Y54.333 E11.62586
G1 X57.96 Y54.325 E11.62689
G1 X58.517 Y54.106 E11.65675
G1 X58.533 Y54.1 E11.6576
G1 X59.266 Y53.88 E11.69579
G1 X59.29 Y53.875 E11.69701
G1 X60.112 Y53.736 E11.7386
G1 X60.131 Y53.733 E11.73956
G1 X60.979 Y53.675 E11.78197
G1 X61.003 Y53.675 E11.78316
G1 X61.601 Y53.705 E11.81303
G1 X61.62 Y53.707 E11.81399
G1 X62.633 Y53.855 E11.86506
G1 X62.661 Y53.861 E11.86649
G1 X63.465 Y54.099 E11.90832
G1 X63.48 Y54.105 E11.90913
G1 X64 Y54.307 E11.93696
G1 X64.019 Y54.315 E11.93799
G1 X64.564 Y54.595 E11.96856
G1 X64.576 Y54.602 E11.96925
G1 X65.254 Y55.011 E12.00876
G1 X65.271 Y55.022 E12.00977
G1 X65.712 Y55.353 E12.03728
G1 X65.727 Y55.365 E12.03823
G1 X66.124 Y55.726 E12.065
G1 X66.132 Y55.735 E12.06561
G1 X66.671 Y56.29 E12.1042
G1 X66.688 Y56.309 E12.10548
G1 X67.196 Y56.985 E12.14766
G1 X67.208 Y57.004 E12.14878
G1 X67.649 Y57.753 E12.19215
G1 X67.661 Y57.776 E12.19344
G1 X68.013 Y58.601 E12.23819
G1 X68.021 Y58.624 E12.23941
G1 X68.31 Y59.637 E12.29196
G1 X68.316 Y59.665 E12.29339
G1 X68.427 Y60.488 E12.33482
G1 X68.429 Y60.511 E12.33597
G1 X68.448 Y61.469 E12.38378
G1 X68.447 Y61.495 E12.38508
G1 X68.345 Y62.42 E12.4315
G1 X68.341 Y62.441 E12.43257
G1 X67.973 Y64.132 E12.51891
G1 X67.973 Y64.136 E12.51911
G1 X67.655 Y65.465 E12.58728
G1 X67.653 Y65.469 E12.58751
G1 X67.478 Y66.132 E12.62172
G1 X67.475 Y66.144 E12.62233
G1 X67.234 Y66.873 E12.66064
G1 X67.225 Y66.896 E12.66187
G1 X66.79 Y67.815 E12.7126
G1 X66.775 Y67.84 E12.71405
G1 X66.243 Y68.633 E12.76169
G1 X66.225 Y68.656 E12.76315
G1 X65.589 Y69.36 E12.81048
G1 X65.568 Y69.38 E12.81193
G1 X64.831 Y69.988 E12.8596
G1 X64.808 Y70.005 E12.86102
G1 X63.995 Y70.499 E12.90849
G1 X63.968 Y70.512 E12.90998
G1 X63.088 Y70.881 E12.95759
G1 X63.061 Y70.891 E12.95902
G1 X62.142 Y71.129 E13.00639
G1 X62.113 Y71.134 E13.00785
G1 X61.163 Y71.235 E13.05552
G1 X61.129 Y71.236 E13.05721
G1 X60.049 Y71.168 E13.1112
G1 X60.016 Y71.163 E13.11287
G1 X59.089 Y70.946 E13.16037
G1 X59.062 Y70.937 E13.16179
G1 X58.171 Y70.587 E13.20954
G1 X58.145 Y70.575 E13.21097
G1 X57.322 Y70.104 E13.25828
G1 X57.297 Y70.087 E13.25979
G1 X56.547 Y69.497 E13.3074
G1 X56.526 Y69.477 E13.30884
G1 X55.869 Y68.783 E13.35652
G1 X55.85 Y68.761 E13.35797
G1 X55.301 Y67.981 E13.40556
G1 X55.286 Y67.956 E13.40701
G1 X54.857 Y67.106 E13.45452
G1 X54.847 Y67.08 E13.45591
G1 X54.545 Y66.193 E13.50265
G1 X54.54 Y66.178 E13.50344
