; HEADER_BLOCK_START
; generated by OrcaSlicer 2.1.0 on 2025-01-01 at 23:26:49
; total layer number: 199
; filament_density: 1.24
; filament_diameter: 1.75
; max_z_height: 20.00
; HEADER_BLOCK_END

; THUMBNAIL_BLOCK_START

;
; THUMBNAIL_BLOCK_END

; external perimeters extrusion width = 0.40mm
; perimeters extrusion width = 0.45mm
; infill extrusion width = 0.45mm
; solid infill extrusion width = 0.40mm
; top infill extrusion width = 0.40mm
; first layer extrusion width = 0.42mm

; EXECUTABLE_BLOCK_START
M73 P0 R24
M201 X2000 Y2000 Z100 E4000
M203 X200 Y200 Z5 E60
M204 P2000 R2000 T2000
M205 X9.00 Y9.00 Z0.20 E5.00 ; sets the jerk limits, mm/sec
;TYPE:Custom
G0 Z1 F300
M190 S60
M109 S205
PRINT_START EXTRUDER=205 BED=60
G21 ;metric values
G90 ;absolute positioning
M82 ;set extruder to absolute mode
M107 ;start with the fan off
G28 ;Home
;G29
G0 Z5 F300
G1 X0 Y50 F6000
G92 E0
G0 Z0.5 F300
G1 Y0 E10 F1000
G1 X50 E18 F1000
G92 E0
M117 Printing...
G90
G21
M83 ; use relative distances for extrusion
; filament start gcode
M106 S0
;LAYER_CHANGE
;Z:0.2
;HEIGHT:0.2
;BEFORE_LAYER_CHANGE
;0.2
G92 E0

G1 E-2 F1500
;_SET_FAN_SPEED_CHANGING_LAYER
M204 S500
G1 X55.834 Y55.042 F7200
G1 Z.2 F3000
G1 E2 F1500
;TYPE:Skirt
;WIDTH:0.42
G1 F3000
G1 X56.702 Y54.363 E.03453
G1 X57.665 Y53.767 E.03553
G1 X59.164 Y53.099 E.05146
G1 X60.227 Y52.791 E.03468
G1 X61.343 Y52.6 E.0355
G1 X63.255 Y52.561 E.05997
G1 X64.963 Y52.837 E.05424
G1 X66.055 Y53.176 E.03588
G1 X67.051 Y53.612 E.03407
G1 X68.821 Y54.753 E.06603
G1 X70.079 Y55.956 E.05457
G1 X70.871 Y56.98 E.0406
G1 X71.44 Y57.929 E.03468
G1 X72.056 Y59.35 E.04856
G1 X72.454 Y60.894 E.05
G1 X72.583 Y61.977 E.0342
G1 X72.595 Y63.095 E.03505
G1 X72.405 Y64.673 E.04984
G1 X71.52 Y68.393 E.1199
G1 X71.154 Y69.479 E.03592
G1 X70.654 Y70.527 E.03642
G1 X69.687 Y71.962 E.05425
G1 X68.893 Y72.815 E.03654
G1 X67.959 Y73.589 E.03804
G1 X66.4 Y74.517 E.05689
G1 X65.33 Y74.939 E.03605
G1 X64.073 Y75.254 E.04063
G1 X62.371 Y75.399 E.05355
G1 X61.108 Y75.284 E.03977
G1 X59.975 Y75.031 E.03639
G1 X58.402 Y74.421 E.05289
G1 X57.326 Y73.794 E.03906
G1 X56.392 Y73.074 E.03698
G1 X55.186 Y71.804 E.05492
G1 X54.523 Y70.842 E.03661
G1 X53.976 Y69.783 E.03739
G1 X53.464 Y68.337 E.04808
G1 X52.568 Y64.524 E.12279
G1 X52.417 Y63.318 E.03813
G1 X52.408 Y62.094 E.03838
G1 X52.627 Y60.481 E.05104
G1 X52.947 Y59.342 E.0371
G1 X53.372 Y58.3 E.03528
G1 X53.998 Y57.178 E.04028
G1 X54.66 Y56.263 E.03541
G1 X55.807 Y55.071 E.05187
; printing object mm-owl.stl id:1941026814464 copy 0
G1 E-1.5 F1500
;WIPE_START
G1 F3000
G1 X56.591 Y54.45 E-.5
;WIPE_END
G1 X56.82 Y56.258
G1 E2 F1500
;TYPE:Brim
G1 F720
G1 X57.535 Y55.688 E.02866
G1 X58.481 Y55.103 E.03489
G1 X59.008 Y54.842 E.01841
G1 X59.622 Y54.596 E.02074
G1 X60.503 Y54.333 E.02883
G1 X61.597 Y54.145 E.03482
G1 X62.428 Y54.095 E.0261
G1 X63.187 Y54.125 E.02381
G1 X63.505 Y54.159 E.01003
G1 X64.516 Y54.337 E.03218
G1 X65.477 Y54.631 E.03152
G1 X65.912 Y54.807 E.0147
G1 X66.375 Y55.025 E.01606
G1 X67.339 Y55.602 E.0352
G1 X67.881 Y56.005 E.02119
G1 X68.287 Y56.358 E.01687
G1 X68.948 Y57.039 E.02975
G1 X69.618 Y57.919 E.03469
G1 X70.086 Y58.716 E.02898
G1 X70.239 Y59.024 E.0108
G1 X70.598 Y59.92 E.03024
G1 X70.903 Y61.104 E.03833
G1 X71.018 Y62.005 E.02849
G1 X71.029 Y63.099 E.03431
G1 X70.876 Y64.336 E.03908
G1 X70.502 Y65.987 E.05309
G1 X70.033 Y67.901 E.06177
G1 X69.674 Y68.968 E.03528
G1 X69.251 Y69.833 E.03022
G1 X69.096 Y70.101 E.00969
G1 X68.532 Y70.905 E.0308
G1 X67.756 Y71.739 E.03572
G1 X66.979 Y72.368 E.03134
G1 X66.723 Y72.548 E.00981
G1 X65.726 Y73.103 E.03577
G1 X64.661 Y73.508 E.03573
G1 X63.729 Y73.726 E.03003
G1 X62.62 Y73.834 E.03493
G1 X62.38 Y73.834 E.0075
G1 X61.271 Y73.726 E.03493
G1 X60.339 Y73.508 E.03003
G1 X59.274 Y73.103 E.03573
G1 X59.089 Y73.014 E.00643
G1 X58.131 Y72.451 E.03485
G1 X57.367 Y71.849 E.03049
M73 P1 R24
G1 X57.175 Y71.67 E.00822
G1 X56.571 Y71.028 E.02763
G1 X56.411 Y70.829 E.00804
G1 X55.822 Y69.969 E.03268
G1 X55.378 Y69.086 E.03098
G1 X55.247 Y68.76 E.01101
G1 X54.956 Y67.861 E.02962
G1 X54.495 Y65.972 E.06096
G1 X54.119 Y64.309 E.05348
G1 X53.983 Y63.289 E.03225
G1 X53.97 Y62.188 E.03453
G1 X54.141 Y60.881 E.04133
G1 X54.402 Y59.922 E.03116
G1 X54.817 Y58.902 E.03453
G1 X55.352 Y57.963 E.03388
G1 X55.913 Y57.202 E.02963
G1 X56.793 Y56.287 E.0398
G1 X57.065 Y56.549 F3000
G1 F720
G1 X57.081 Y56.533 E.0007
G1 X57.758 Y55.993 E.02715
G1 X58.66 Y55.435 E.03324
G1 X59.166 Y55.185 E.0177
G1 X59.751 Y54.951 E.01977
G1 X60.596 Y54.699 E.02764
G1 X61.634 Y54.521 E.03304
G1 X62.426 Y54.473 E.02488
G1 X63.156 Y54.501 E.02288
G1 X63.456 Y54.534 E.00947
G1 X64.434 Y54.707 E.03114
G1 X65.356 Y54.989 E.03022
G1 X65.764 Y55.154 E.0138
G1 X66.193 Y55.356 E.01486
G1 X67.124 Y55.913 E.03402
G1 X67.641 Y56.296 E.02019
G1 X68.031 Y56.636 E.01621
G1 X68.657 Y57.28 E.02818
G1 X69.301 Y58.124 E.03327
G1 X69.753 Y58.892 E.02794
G1 X69.897 Y59.183 E.01017
G1 X70.236 Y60.031 E.02864
G1 X70.533 Y61.182 E.03727
G1 X70.641 Y62.038 E.02705
G1 X70.652 Y63.07 E.03238
G1 X70.503 Y64.276 E.03811
G1 X70.135 Y65.902 E.05226
G1 X69.669 Y67.8 E.06129
G1 X69.327 Y68.817 E.03363
G1 X68.919 Y69.653 E.02916
G1 X68.775 Y69.902 E.00904
G1 X68.243 Y70.661 E.02906
G1 X67.504 Y71.457 E.03406
G1 X66.755 Y72.064 E.03022
G1 X66.517 Y72.231 E.0091
G1 X65.574 Y72.757 E.03386
G1 X64.558 Y73.144 E.0341
G1 X63.675 Y73.352 E.02845
G1 X62.607 Y73.456 E.03364
G1 X62.404 Y73.457 E.00636
G1 X61.34 Y73.354 E.03351
G1 X60.457 Y73.148 E.02845
G1 X59.262 Y72.679 E.04023
G1 X58.35 Y72.143 E.03317
G1 X57.616 Y71.565 E.02929
G1 X56.86 Y70.785 E.03406
G1 X56.711 Y70.6 E.00745
G1 X56.152 Y69.783 E.03106
G1 X55.724 Y68.935 E.02977
G1 X55.601 Y68.628 E.01038
G1 X55.318 Y67.754 E.02879
G1 X54.862 Y65.887 E.06026
G1 X54.49 Y64.237 E.05303
G1 X54.359 Y63.255 E.03106
G1 X54.348 Y62.218 E.03251
G1 X54.513 Y60.947 E.04018
G1 X54.762 Y60.036 E.02961
G1 X55.154 Y59.074 E.03259
G1 X55.666 Y58.175 E.03243
G1 X56.198 Y57.452 E.02815
G1 X57.037 Y56.578 E.038
G1 X57.277 Y56.863 F3000
G1 F720
G1 X57.986 Y56.293 E.02854
G1 X58.875 Y55.746 E.03274
G1 X59.334 Y55.522 E.01599
G1 X59.796 Y55.336 E.01561
G1 X60.807 Y55.035 E.03308
G1 X61.719 Y54.889 E.02895
G1 X62.466 Y54.848 E.02348
G1 X63.283 Y54.889 E.02563
G1 X64.212 Y55.04 E.02953
G1 X65.146 Y55.315 E.03053
G1 X65.653 Y55.517 E.01711
G1 X66.114 Y55.74 E.01606
G1 X66.964 Y56.258 E.0312
G1 X67.733 Y56.872 E.03086
G1 X68.469 Y57.636 E.03324
G1 X69.034 Y58.405 E.02994
G1 X69.469 Y59.165 E.02747
G1 X69.828 Y60.011 E.0288
G1 X69.929 Y60.305 E.00976
G1 X70.154 Y61.194 E.02875
G1 X70.275 Y62.189 E.03143
G1 X70.272 Y63.164 E.03057
G1 X70.153 Y64.095 E.02943
G1 X69.77 Y65.807 E.05499
G1 X69.306 Y67.7 E.06111
G1 X68.945 Y68.753 E.03491
G1 X68.526 Y69.589 E.02932
G1 X68.003 Y70.353 E.02904
G1 X67.162 Y71.26 E.03878
G1 X66.371 Y71.878 E.03147
G1 X65.538 Y72.359 E.03015
G1 X64.486 Y72.775 E.03548
G1 X63.588 Y72.981 E.02888
G1 X62.566 Y73.081 E.03219
G1 X61.322 Y72.965 E.03919
G1 X60.421 Y72.745 E.02907
G1 X59.552 Y72.403 E.02928
G1 X58.487 Y71.775 E.03877
G1 X57.765 Y71.193 E.02907
G1 X57.057 Y70.432 E.03259
G1 X56.423 Y69.495 E.03546
G1 X56.018 Y68.666 E.02892
G1 X55.705 Y67.74 E.03066
G1 X55.232 Y65.815 E.06215
G1 X54.906 Y64.385 E.04598
G1 X54.847 Y64.097 E.00924
G1 X54.725 Y63.102 E.03141
G1 X54.73 Y62.103 E.03134
G1 X54.853 Y61.159 E.02984
G1 X55.095 Y60.229 E.03015
G1 X55.568 Y59.091 E.03864
G1 X55.996 Y58.358 E.0266
G1 X56.578 Y57.582 E.03042
G1 X57.249 Y56.891 E.03018
G1 X57.519 Y57.154 F3000
G1 F720
G1 X57.552 Y57.121 E.00147
G1 X58.226 Y56.584 E.02703
G1 X59.076 Y56.065 E.03123
G1 X59.5 Y55.861 E.01476
G1 X59.9 Y55.698 E.01353
G1 X60.859 Y55.408 E.03141
G1 X61.784 Y55.261 E.02937
G1 X62.491 Y55.225 E.02219
G1 X63.216 Y55.261 E.02278
G1 X64.159 Y55.413 E.02995
G1 X65.003 Y55.663 E.0276
G1 X65.488 Y55.855 E.01635
G1 X65.913 Y56.059 E.01479
G1 X66.774 Y56.584 E.0316
G1 X67.458 Y57.13 E.02744
G1 X68.161 Y57.854 E.03167
G1 X68.705 Y58.588 E.02862
G1 X69.12 Y59.307 E.02602
G1 X69.483 Y60.162 E.02914
G1 X69.563 Y60.396 E.00774
G1 X69.779 Y61.235 E.02717
G1 X69.898 Y62.183 E.02996
G1 X69.898 Y63.11 E.02907
G1 X69.778 Y64.053 E.02981
G1 X69.401 Y65.725 E.05373
G1 X68.939 Y67.615 E.06102
G1 X68.612 Y68.577 E.03185
G1 X68.185 Y69.426 E.0298
G1 X67.688 Y70.145 E.02739
G1 X66.935 Y70.959 E.03477
G1 X66.189 Y71.547 E.0298
G1 X65.342 Y72.037 E.03066
G1 X64.407 Y72.406 E.03151
G1 X63.558 Y72.605 E.02735
G1 X62.518 Y72.707 E.03276
G1 X61.417 Y72.601 E.0347
G1 X60.567 Y72.398 E.02741
G1 X59.683 Y72.049 E.0298
G1 X58.728 Y71.485 E.03476
G1 X58.044 Y70.94 E.0274
G1 X57.373 Y70.227 E.03072
G1 X56.765 Y69.335 E.03385
G1 X56.378 Y68.553 E.02736
G1 X56.061 Y67.615 E.03104
G1 X55.599 Y65.725 E.06102
G1 X55.275 Y64.309 E.04554
G1 X55.222 Y64.053 E.00819
G1 X55.102 Y63.11 E.02981
G1 X55.103 Y62.158 E.02983
G1 X55.228 Y61.201 E.03028
G1 X55.462 Y60.318 E.02862
G1 X55.891 Y59.286 E.03505
G1 X56.295 Y58.588 E.0253
G1 X56.843 Y57.85 E.02882
M73 P2 R24
G1 X57.491 Y57.183 E.02916
G1 E-1.4 F1500
;WIPE_START
G1 F720
G1 X57.552 Y57.121 E-.05218
G1 X58.226 Y56.584 E-.5172
G1 X58.27 Y56.557 E-.03062
;WIPE_END
G1 X57.312 Y68.688 F3000
G1 E2 F1500
;TYPE:Inner wall
;WIDTH:0.419999
G1 F720
G1 X57.1 Y68.266 E.01483
G1 X56.804 Y67.391 E.02896
G1 X56.353 Y65.545 E.05955
G1 X55.987 Y63.926 E.05205
G1 X55.877 Y63.072 E.02701
G1 X55.877 Y62.221 E.02669
G1 X55.992 Y61.339 E.02787
G1 X56.202 Y60.553 E.02551
G1 X56.521 Y59.759 E.02683
G1 X56.94 Y59.021 E.02662
G1 X57.427 Y58.362 E.02569
G1 X58.07 Y57.7 E.02893
G1 X58.677 Y57.216 E.02435
G1 X59.445 Y56.748 E.0282
G1 X60.267 Y56.392 E.02809
G1 X61.019 Y56.168 E.0246
G1 X61.875 Y56.031 E.02716
G1 X62.5 Y56.001 E.01963
G1 X63.068 Y56.029 E.01782
G1 X63.998 Y56.173 E.02951
G1 X64.831 Y56.426 E.02731
G1 X65.543 Y56.741 E.02438
G1 X66.147 Y57.109 E.02217
G1 X66.701 Y57.503 E.02131
G1 X67.565 Y58.353 E.03803
G1 X68.062 Y59.023 E.02613
G1 X68.419 Y59.641 E.02238
G1 X68.799 Y60.556 E.03106
G1 X69.015 Y61.371 E.02646
G1 X69.123 Y62.22 E.02683
G1 X69.123 Y63.071 E.02668
G1 X69.002 Y63.982 E.0288
G1 X68.647 Y65.545 E.05028
G1 X68.192 Y67.406 E.06007
G1 X67.9 Y68.266 E.02848
G1 X67.559 Y68.953 E.02403
G1 X67.013 Y69.75 E.0303
G1 X66.421 Y70.377 E.02704
G1 X65.822 Y70.852 E.02398
G1 X64.989 Y71.344 E.03031
G1 X64.188 Y71.661 E.02702
G1 X63.443 Y71.837 E.024
G1 X62.5 Y71.929 E.02971
G1 X61.557 Y71.837 E.02971
G1 X60.812 Y71.661 E.024
G1 X60.007 Y71.343 E.02713
G1 X59.258 Y70.912 E.02711
G1 X58.581 Y70.378 E.02701
G1 X57.925 Y69.669 E.0303
G1 X57.489 Y69.041 E.02397
G1 X57.33 Y68.724 E.01112
G1 X56.975 Y68.857 F3000
;TYPE:Outer wall
G1 F720
G1 X56.751 Y68.411 E.01566
G1 X56.442 Y67.496 E.03029
G1 X55.986 Y65.632 E.06017
G1 X55.616 Y63.992 E.05271
G1 X55.5 Y63.096 E.02832
G1 X55.5 Y62.196 E.02822
G1 X55.621 Y61.266 E.02942
G1 X55.843 Y60.434 E.02701
G1 X56.181 Y59.595 E.02834
G1 X56.623 Y58.815 E.02812
G1 X57.139 Y58.117 E.0272
G1 X57.816 Y57.42 E.03048
G1 X58.461 Y56.906 E.02585
G1 X59.271 Y56.412 E.02976
G1 X60.138 Y56.037 E.02962
G1 X60.936 Y55.8 E.02608
G1 X61.835 Y55.656 E.02858
G1 X62.5 Y55.623 E.02086
G1 X63.106 Y55.653 E.01902
G1 X64.082 Y55.804 E.03098
G1 X64.963 Y56.072 E.02887
G1 X65.718 Y56.406 E.02587
G1 X66.541 Y56.907 E.03022
M73 P2 R23
G1 X66.948 Y57.217 E.01604
G1 X67.851 Y58.105 E.03969
G1 X68.378 Y58.815 E.02774
G1 X68.757 Y59.473 E.02382
G1 X69.157 Y60.434 E.03263
G1 X69.385 Y61.299 E.02804
G1 X69.5 Y62.196 E.02836
G1 X69.5 Y63.096 E.02821
G1 X69.374 Y64.048 E.03012
G1 X69.014 Y65.632 E.05092
G1 X68.554 Y67.512 E.06068
G1 X68.249 Y68.412 E.02979
G1 X67.885 Y69.144 E.02565
G1 X67.307 Y69.988 E.03205
G1 X66.676 Y70.656 E.02881
G1 X66.036 Y71.164 E.02563
G1 X65.156 Y71.684 E.03205
G1 X64.301 Y72.021 E.02881
G1 X63.505 Y72.209 E.02564
G1 X62.5 Y72.308 E.03167
G1 X61.495 Y72.209 E.03167
G1 X60.699 Y72.021 E.02564
G1 X59.843 Y71.684 E.02885
G1 X59.046 Y71.225 E.02884
G1 X58.325 Y70.656 E.0288
G1 X57.631 Y69.905 E.03205
G1 X57.164 Y69.234 E.02563
G1 X56.993 Y68.893 E.01196
G1 X57.017 Y68.789
G1 E-1.4 F1500
;WIPE_START
G1 F720
G1 X56.751 Y68.411 E-.32363
G1 X56.603 Y67.975 E-.27637
;WIPE_END
G1 X65.893 Y57.087 F3000
G1 E2 F1500
;TYPE:Bottom surface
;WIDTH:0.428899
G1 F1200
G1 X67.369 Y58.563 E.06702
G1 X67.825 Y59.178 E.02457
G1 X68.165 Y59.766 E.0218
G1 X68.263 Y60.002 E.00821
G1 X65.127 Y56.866 E.14234
G1 X64.733 Y56.692 E.01382
G1 X64.264 Y56.549 E.01574
G1 X68.591 Y60.877 E.19643
G1 X68.736 Y61.426 E.01821
G1 X68.757 Y61.589 E.00528
G1 X63.559 Y56.391 E.23591
G1 X62.927 Y56.305 E.02047
G1 X68.837 Y62.214 E.26822
G1 X68.84 Y62.763 E.01762
G1 X62.367 Y56.291 E.29378
G1 X61.852 Y56.321 E.01656
G1 X68.81 Y63.279 E.31579
G1 X68.746 Y63.761 E.0156
G1 X61.382 Y56.397 E.33425
G1 X61.082 Y56.445 E.00974
G1 X60.929 Y56.49 E.00512
G1 X68.658 Y64.219 E.3508
G1 X68.557 Y64.664 E.01464
G1 X60.508 Y56.615 E.36532
G1 X60.114 Y56.766 E.01356
G1 X68.456 Y65.109 E.37864
G1 X68.354 Y65.552 E.01462
G1 X59.733 Y56.931 E.39129
G1 X59.576 Y57 E.0055
G1 X59.377 Y57.121 E.00748
G1 X68.247 Y65.991 E.40259
G1 X68.139 Y66.429 E.01449
M73 P3 R23
G1 X59.037 Y57.328 E.41312
G1 X58.713 Y57.549 E.01261
G1 X68.032 Y66.868 E.42298
G1 X67.925 Y67.307 E.01449
G1 X58.409 Y57.791 E.4319
G1 X58.26 Y57.909 E.00611
G1 X58.123 Y58.051 E.00631
G1 X67.788 Y67.716 E.43868
G1 X67.65 Y68.123 E.01382
G1 X57.854 Y58.328 E.44461
G1 X57.593 Y58.613 E.0124
G1 X67.472 Y68.492 E.44839
G1 X67.286 Y68.851 E.01299
G1 X57.361 Y58.926 E.45046
G1 X57.136 Y59.247 E.01258
G1 X67.064 Y69.175 E.4506
G1 X66.842 Y69.499 E.0126
G1 X56.939 Y59.596 E.4495
G1 X56.749 Y59.951 E.01294
G1 X66.587 Y69.79 E.44654
G1 X66.322 Y70.07 E.01239
G1 X56.592 Y60.341 E.44161
G1 X56.445 Y60.739 E.01364
G1 X66.031 Y70.325 E.4351
G1 X65.727 Y70.567 E.01247
G1 X56.33 Y61.17 E.4265
G1 X56.27 Y61.394 E.00744
G1 X56.24 Y61.626 E.00751
G1 X65.392 Y70.778 E.41539
G1 X65.049 Y70.981 E.01279
G1 X56.177 Y62.109 E.40267
G1 X56.16 Y62.239 E.00421
G1 X56.16 Y62.638 E.01281
G1 X64.683 Y71.161 E.38685
G1 X64.292 Y71.316 E.0135
G1 X56.179 Y63.203 E.36821
G1 X56.26 Y63.83 E.02028
G1 X63.874 Y71.444 E.3456
G1 X63.433 Y71.548 E.01456
G1 X56.414 Y64.529 E.3186
G1 X56.573 Y65.234 E.0232
G1 X62.941 Y71.602 E.28902
G1 X62.431 Y71.639 E.01639
G1 X56.743 Y65.95 E.25817
G1 X56.92 Y66.673 E.02387
G1 X61.826 Y71.579 E.22268
M73 P4 R23
G1 X61.603 Y71.557 E.00717
G1 X61.151 Y71.45 E.01492
G1 X57.108 Y67.407 E.18351
G1 X57.361 Y68.156 E.02538
G1 X57.412 Y68.256 E.00359
G1 X60.316 Y71.161 E.13182
G1 X60.13 Y71.087 E.0064
G1 X59.417 Y70.677 E.02642
G1 X58.801 Y70.191 E.02518
G1 X57.581 Y68.971 E.05536
; stop printing object mm-owl.stl id:1941026814464 copy 0
M106 S127
;LAYER_CHANGE
;Z:0.3
;HEIGHT:0.1
;BEFORE_LAYER_CHANGE
;0.3
G92 E0

G1 E-1.4 F1500
;WIPE_START
G1 F1200
G1 X58.288 Y69.679 E-.6
;WIPE_END
;_SET_FAN_SPEED_CHANGING_LAYER
M204 S1200
; printing object mm-owl.stl id:1941026814464 copy 0
G1 X57.23 Y68.671 Z.3 F7200
G1 E2 F1500
M204 S1000
;TYPE:Inner wall
;WIDTH:0.449999
G1 F2700
G1 X57.053 Y68.324 E.00694
G1 X56.745 Y67.461 E.01633
G1 X56.193 Y65.273 E.04021
G1 X55.897 Y63.945 E.02423
G1 X55.785 Y63.078 E.01557
G1 X55.785 Y62.215 E.01537
G1 X55.912 Y61.253 E.0173
G1 X56.134 Y60.465 E.01457
G1 X56.436 Y59.712 E.01447
G1 X56.863 Y58.969 E.01527
G1 X57.316 Y58.345 E.01373
G1 X58.062 Y57.578 E.01906
G1 X58.568 Y57.177 E.01151
G1 X59.422 Y56.653 E.01786
G1 X60.339 Y56.268 E.01771
G1 X60.98 Y56.078 E.0119
G1 X61.561 Y55.987 E.01049
G1 X62.262 Y55.92 E.01255
G1 X62.968 Y55.931 E.01257
G1 X64.059 Y56.088 E.01965
G1 X64.949 Y56.37 E.01662
G1 X65.533 Y56.628 E.01138
G1 X66.543 Y57.264 E.02127
G1 X66.958 Y57.596 E.00947
G1 X67.643 Y58.295 E.01744
G1 X68.139 Y58.972 E.01495
G1 X68.502 Y59.592 E.0128
G1 X68.887 Y60.527 E.01801
G1 X69.107 Y61.345 E.01509
G1 X69.215 Y62.213 E.0156
G1 X69.215 Y63.075 E.01536
G1 X69.073 Y64.104 E.0185
G1 X68.549 Y66.354 E.04117
G1 X68.256 Y67.457 E.02033
G1 X67.945 Y68.327 E.01645
G1 X67.667 Y68.887 E.01114
G1 X67.04 Y69.82 E.02003
G1 X66.442 Y70.446 E.01542
G1 X65.763 Y70.977 E.01536
G1 X65.001 Y71.411 E.01563
G1 X64.19 Y71.728 E.01552
